TileServer und Tiles/svg/9/95_9.svg

<?xml version='1.0' encoding='UTF-8' standalone='no'?>
<svg xmlns="http://www.w3.org/2000/svg" width="497pt" viewBox="0 0 497 279" xmlns:xlink="http://www.w3.org/1999/xlink" height="279pt">
 <defs style="stroke:none;" overflow="visible">
  <path id="glyph0-5" d="M 2.640625 -0.625 C 2.773438 -0.625 2.910156 -0.632812 3.046875 -0.65625 C 3.191406 -0.675781 3.304688 -0.703125 3.390625 -0.734375 L 3.390625 -0.0625 C 3.296875 -0.0078125 3.160156 0.0234375 2.984375 0.046875 C 2.816406 0.078125 2.648438 0.09375 2.484375 0.09375 C 2.203125 0.09375 1.941406 0.046875 1.703125 -0.046875 C 1.472656 -0.140625 1.285156 -0.304688 1.140625 -0.546875 C 0.992188 -0.785156 0.921875 -1.125 0.921875 -1.5625 L 0.921875 -4.6875 L 0.15625 -4.6875 L 0.15625 -5.09375 L 0.9375 -5.453125 L 1.28125 -6.59375 L 1.796875 -6.59375 L 1.796875 -5.359375 L 3.34375 -5.359375 L 3.34375 -4.6875 L 1.796875 -4.6875 L 1.796875 -1.578125 C 1.796875 -1.253906 1.875 -1.015625 2.03125 -0.859375 C 2.1875 -0.703125 2.390625 -0.625 2.640625 -0.625 Z M 2.640625 -0.625 "/>
  <path id="glyph0-4" d="M 5.515625 -2.6875 C 5.515625 -1.800781 5.285156 -1.113281 4.828125 -0.625 C 4.378906 -0.144531 3.773438 0.09375 3.015625 0.09375 C 2.535156 0.09375 2.109375 -0.0078125 1.734375 -0.21875 C 1.367188 -0.4375 1.078125 -0.753906 0.859375 -1.171875 C 0.648438 -1.585938 0.546875 -2.09375 0.546875 -2.6875 C 0.546875 -3.570312 0.769531 -4.253906 1.21875 -4.734375 C 1.664062 -5.210938 2.273438 -5.453125 3.046875 -5.453125 C 3.523438 -5.453125 3.945312 -5.34375 4.3125 -5.125 C 4.6875 -4.914062 4.976562 -4.601562 5.1875 -4.1875 C 5.40625 -3.78125 5.515625 -3.28125 5.515625 -2.6875 Z M 1.453125 -2.6875 C 1.453125 -2.050781 1.578125 -1.546875 1.828125 -1.171875 C 2.078125 -0.804688 2.476562 -0.625 3.03125 -0.625 C 3.570312 -0.625 3.96875 -0.804688 4.21875 -1.171875 C 4.46875 -1.546875 4.59375 -2.050781 4.59375 -2.6875 C 4.59375 -3.320312 4.46875 -3.816406 4.21875 -4.171875 C 3.96875 -4.535156 3.566406 -4.71875 3.015625 -4.71875 C 2.472656 -4.71875 2.078125 -4.535156 1.828125 -4.171875 C 1.578125 -3.816406 1.453125 -3.320312 1.453125 -2.6875 Z M 1.453125 -2.6875 "/>
  <path id="glyph0-3" d="M 3.4375 -5.453125 C 4.070312 -5.453125 4.550781 -5.296875 4.875 -4.984375 C 5.207031 -4.679688 5.375 -4.179688 5.375 -3.484375 L 5.375 0 L 4.5 0 L 4.5 -3.4375 C 4.5 -4.289062 4.097656 -4.71875 3.296875 -4.71875 C 2.703125 -4.71875 2.289062 -4.550781 2.0625 -4.21875 C 1.84375 -3.882812 1.734375 -3.40625 1.734375 -2.78125 L 1.734375 0 L 0.84375 0 L 0.84375 -5.359375 L 1.5625 -5.359375 L 1.6875 -4.625 L 1.734375 -4.625 C 1.910156 -4.90625 2.148438 -5.113281 2.453125 -5.25 C 2.765625 -5.382812 3.09375 -5.453125 3.4375 -5.453125 Z M 3.4375 -5.453125 "/>
  <path id="glyph0-2" d="M 1.296875 -7.375 C 1.429688 -7.375 1.550781 -7.328125 1.65625 -7.234375 C 1.757812 -7.140625 1.8125 -7 1.8125 -6.8125 C 1.8125 -6.625 1.757812 -6.484375 1.65625 -6.390625 C 1.550781 -6.296875 1.429688 -6.25 1.296875 -6.25 C 1.148438 -6.25 1.023438 -6.296875 0.921875 -6.390625 C 0.828125 -6.484375 0.78125 -6.625 0.78125 -6.8125 C 0.78125 -7 0.828125 -7.140625 0.921875 -7.234375 C 1.023438 -7.328125 1.148438 -7.375 1.296875 -7.375 Z M 1.734375 -5.359375 L 1.734375 0 L 0.84375 0 L 0.84375 -5.359375 Z M 1.734375 -5.359375 "/>
  <path id="glyph0-1" d="M 4.125 0 L 1.765625 -6.265625 L 1.734375 -6.265625 C 1.753906 -6.054688 1.769531 -5.773438 1.78125 -5.421875 C 1.789062 -5.078125 1.796875 -4.710938 1.796875 -4.328125 L 1.796875 0 L 0.96875 0 L 0.96875 -7.140625 L 2.296875 -7.140625 L 4.5 -1.296875 L 4.546875 -1.296875 L 6.78125 -7.140625 L 8.09375 -7.140625 L 8.09375 0 L 7.203125 0 L 7.203125 -4.390625 C 7.203125 -4.734375 7.210938 -5.078125 7.234375 -5.421875 C 7.253906 -5.765625 7.269531 -6.039062 7.28125 -6.25 L 7.234375 -6.25 L 4.859375 0 Z M 4.125 0 "/>
  <path id="glyph0-0" d="M 0.9375 0 L 0.9375 -7.140625 L 5.046875 -7.140625 L 5.046875 0 Z M 1.453125 -0.515625 L 4.546875 -0.515625 L 4.546875 -6.625 L 1.453125 -6.625 Z M 1.453125 -0.515625 "/>
 </defs>
 <image width="497" xlink:href="svg/9/95_9.jpg" height="279"/>
 <g>
  <path d="M 394.792969 210.429688 L 392.433594 204.164062 L 392.402344 204.164062 C 392.421875 204.375 392.4375 204.65625 392.449219 205.007812 C 392.457031 205.351562 392.464844 205.71875 392.464844 206.101562 L 392.464844 210.429688 L 391.636719 210.429688 L 391.636719 203.289062 L 392.964844 203.289062 L 395.167969 209.132812 L 395.214844 209.132812 L 397.449219 203.289062 L 398.761719 203.289062 L 398.761719 210.429688 L 397.871094 210.429688 L 397.871094 206.039062 C 397.871094 205.695312 397.878906 205.351562 397.902344 205.007812 C 397.921875 204.664062 397.9375 204.390625 397.949219 204.179688 L 397.902344 204.179688 L 395.527344 210.429688 Z M 394.792969 210.429688 " transform=" rotate(  340 407.143 207.432) " style="fill:none;stroke-width:3;stroke-linecap:butt;stroke-linejoin:round;stroke:rgb(100%,100%,100%);stroke-opacity:0.6;stroke-miterlimit:10;"/>
  <path d="M 401.035156 203.054688 C 401.167969 203.054688 401.289062 203.101562 401.394531 203.195312 C 401.496094 203.289062 401.550781 203.429688 401.550781 203.617188 C 401.550781 203.804688 401.496094 203.945312 401.394531 204.039062 C 401.289062 204.132812 401.167969 204.179688 401.035156 204.179688 C 400.886719 204.179688 400.761719 204.132812 400.660156 204.039062 C 400.566406 203.945312 400.519531 203.804688 400.519531 203.617188 C 400.519531 203.429688 400.566406 203.289062 400.660156 203.195312 C 400.761719 203.101562 400.886719 203.054688 401.035156 203.054688 Z M 401.472656 205.070312 L 401.472656 210.429688 L 400.582031 210.429688 L 400.582031 205.070312 Z M 401.472656 205.070312 " transform=" rotate(  340 407.143 207.432) " style="fill:none;stroke-width:3;stroke-linecap:butt;stroke-linejoin:round;stroke:rgb(100%,100%,100%);stroke-opacity:0.6;stroke-miterlimit:10;"/>
  <path d="M 405.753906 204.976562 C 406.386719 204.976562 406.867188 205.132812 407.191406 205.445312 C 407.523438 205.75 407.691406 206.25 407.691406 206.945312 L 407.691406 210.429688 L 406.816406 210.429688 L 406.816406 206.992188 C 406.816406 206.140625 406.414062 205.710938 405.613281 205.710938 C 405.019531 205.710938 404.605469 205.878906 404.378906 206.210938 C 404.160156 206.546875 404.050781 207.023438 404.050781 207.648438 L 404.050781 210.429688 L 403.160156 210.429688 L 403.160156 205.070312 L 403.878906 205.070312 L 404.003906 205.804688 L 404.050781 205.804688 C 404.226562 205.523438 404.464844 205.316406 404.769531 205.179688 C 405.082031 205.046875 405.410156 204.976562 405.753906 204.976562 Z M 405.753906 204.976562 " transform=" rotate(  340 407.143 207.432) " style="fill:none;stroke-width:3;stroke-linecap:butt;stroke-linejoin:round;stroke:rgb(100%,100%,100%);stroke-opacity:0.6;stroke-miterlimit:10;"/>
  <path d="M 414.011719 207.742188 C 414.011719 208.628906 413.78125 209.316406 413.324219 209.804688 C 412.875 210.285156 412.269531 210.523438 411.511719 210.523438 C 411.03125 210.523438 410.605469 210.421875 410.230469 210.210938 C 409.863281 209.992188 409.574219 209.675781 409.355469 209.257812 C 409.144531 208.84375 409.042969 208.335938 409.042969 207.742188 C 409.042969 206.859375 409.265625 206.175781 409.714844 205.695312 C 410.160156 205.21875 410.769531 204.976562 411.542969 204.976562 C 412.019531 204.976562 412.441406 205.085938 412.808594 205.304688 C 413.183594 205.515625 413.472656 205.828125 413.683594 206.242188 C 413.902344 206.648438 414.011719 207.148438 414.011719 207.742188 Z M 409.949219 207.742188 C 409.949219 208.378906 410.074219 208.882812 410.324219 209.257812 C 410.574219 209.625 410.972656 209.804688 411.527344 209.804688 C 412.066406 209.804688 412.464844 209.625 412.714844 209.257812 C 412.964844 208.882812 413.089844 208.378906 413.089844 207.742188 C 413.089844 207.109375 412.964844 206.613281 412.714844 206.257812 C 412.464844 205.894531 412.0625 205.710938 411.511719 205.710938 C 410.96875 205.710938 410.574219 205.894531 410.324219 206.257812 C 410.074219 206.613281 409.949219 207.109375 409.949219 207.742188 Z M 409.949219 207.742188 " transform=" rotate(  340 407.143 207.432) " style="fill:none;stroke-width:3;stroke-linecap:butt;stroke-linejoin:round;stroke:rgb(100%,100%,100%);stroke-opacity:0.6;stroke-miterlimit:10;"/>
  <path d="M 417.1875 209.804688 C 417.320312 209.804688 417.457031 209.796875 417.59375 209.773438 C 417.738281 209.753906 417.851562 209.726562 417.9375 209.695312 L 417.9375 210.367188 C 417.84375 210.421875 417.707031 210.453125 417.53125 210.476562 C 417.363281 210.507812 417.195312 210.523438 417.03125 210.523438 C 416.75 210.523438 416.488281 210.476562 416.25 210.382812 C 416.019531 210.289062 415.832031 210.125 415.6875 209.882812 C 415.539062 209.644531 415.46875 209.304688 415.46875 208.867188 L 415.46875 205.742188 L 414.703125 205.742188 L 414.703125 205.335938 L 415.484375 204.976562 L 415.828125 203.835938 L 416.34375 203.835938 L 416.34375 205.070312 L 417.890625 205.070312 L 417.890625 205.742188 L 416.34375 205.742188 L 416.34375 208.851562 C 416.34375 209.175781 416.421875 209.414062 416.578125 209.570312 C 416.734375 209.726562 416.9375 209.804688 417.1875 209.804688 Z M 417.1875 209.804688 " transform=" rotate(  340 407.143 207.432) " style="fill:none;stroke-width:3;stroke-linecap:butt;stroke-linejoin:round;stroke:rgb(100%,100%,100%);stroke-opacity:0.6;stroke-miterlimit:10;"/>
  <g transform=" rotate(  340 407.143 207.432) " style="fill:rgb(13.333333%,13.333333%,13.333333%);fill-opacity:1;">
   <use xlink:href="#glyph0-1" y="210.431544" x="390.668019"/>
   <use xlink:href="#glyph0-2" y="210.431544" x="399.738019"/>
   <use xlink:href="#glyph0-3" y="210.431544" x="402.318019"/>
   <use xlink:href="#glyph0-4" y="210.431544" x="408.498019"/>
   <use xlink:href="#glyph0-5" y="210.431544" x="414.548019"/>
  </g>
 </g>
</svg>

<svg xmlns="http://www.w3.org/2000/svg" xmlns:xlink="http://www.w3.org/1999/xlink" viewBox="0 0 497 279"> <defs overflow="visible" style="stroke:none">  <path id="e" d="M2.6-.6H3l.4-.2v.7L3 0H1.7l-.6-.5-.1-1v-3.3H.2V-5l.7-.5.4-1h.5v1h1.5v.8H1.8v3.1c0 .3 0 .6.2.7l.6.3Zm0 0"/>  <path id="d" d="M5.5-2.7c0 .9-.2 1.7-.7 2-.4.7-1 .9-1.8.9-.5-.2-.9-.2-1.3-.4-.3-.2-.6-.6-.7-1C.6-1.6.5-2 .5-2.7c0-.9.3-1.6.7-2 .5-.5 1-.8 1.8-.8.5 0 1 .2 1.3.5.4 0 .7.4.9.9.2.2.3.7.3 1.3Zm-4 0c0 .7 0 1.2.3 1.5.3.4.7.6 1.2.6.6 0 1-.2 1.2-.6.3-.3.4-.8.4-1.5s-.1-1.1-.4-1.5c-.2-.3-.6-.5-1.2-.5-.5 0-1 .2-1.2.5-.2.4-.3.9-.3 1.5Zm0 0"/>  <path id="c" d="M3.4-5.5c.7 0 1.2.2 1.6.5.2.3.4.8.4 1.5V0h-.9v-3.4c0-.9-.4-1.3-1.2-1.3-.6 0-1 .1-1.2.5-.3.2-.4.8-.4 1.4V0H.8v-5.4h.8v.8h.2c.2-.4.3-.5.7-.7l1-.2Zm0 0"/>  <path id="b" d="M1.3-7.4c.1 0 .3 0 .4.2l.1.4-.1.4-.4.2-.4-.3-.1-.3.1-.4.4-.2Zm.4 2V0H.8v-5.4Zm0 0"/>  <path id="a" d="M4.1 0 1.8-6.3V0H1v-7.1h1.3l2.2 5.8 2.3-5.8H8V0h-.8v-6.2L5 0Zm0 0"/>  <path d="M1 0v-7.1h4V0Zm.4-.5h3.1v-6.1h-3Zm.1 0"/> </defs> <image xlink:href="svg/9/95_9.jpg" width="497" height="279"/> <path d="m394.8 210.4-2.4-6.2v6.2h-.7v-7.1h1.3l2.2 5.7 2.2-5.7h1.4v7.1h-1V206l.2-1v-.8l-2.5 6.2Zm6.2-7.4.4.3.2.3-.2.4-.4.2s-.2 0-.3-.2l-.2-.4c0-.2 0-.3.2-.4l.3-.1Zm.5 2v5.5h-1v-5.4Zm4.3 0c.6 0 1 0 1.4.4.3.3.5.8.5 1.6v3.4h-.9V207c0-1-.4-1.3-1.2-1.3-.6 0-1 .3-1.2.5-.2.3-.4.8-.4 1.4v2.8h-1v-5.3h1v.7c.3-.3.6-.5.9-.6.1-.2.5-.2.9-.2Zm8.2 2.7c0 1-.2 1.6-.7 2.1-.3.5-1 .7-1.8.7-.5 0-.9 0-1.3-.3-.2-.2-.6-.5-.8-1-.4-.3-.4-.8-.4-1.4 0-.8.3-1.6.7-2.1.5-.5 1-.7 1.8-.7.5 0 1 0 1.3.3.4.2.7.5.9 1 .2.2.3.7.3 1.3Zm-4 0c0 .7 0 1.3.2 1.6.4.3.8.5 1.3.5.6 0 1-.2 1.2-.5.3-.4.4-1 .4-1.6-.1-.6-.1-1-.4-1.4-.2-.4-.6-.6-1.2-.6-.5 0-1 .3-1.2.6-.2.3-.3.7-.3 1.4Zm7.2 2.1h.4l.3-.1v.7h-.4l-.5.2-.8-.2-.4-.5c-.3-.3-.3-.6-.3-1v-3.2h-.8v-.4l.8-.3.3-1.2h.5v1.3h1.7v.6h-1.7v3.3c0 .2.1.4.3.6l.6.2Zm0 0" style="fill:none;stroke-width:3;stroke-linecap:butt;stroke-linejoin:round;stroke:#fff;stroke-opacity:.6;stroke-miterlimit:10" transform=" rotate(  340 407.143 207.432) "/> <g style="fill:#222;fill-opacity:1" transform=" rotate(  340 407.143 207.432) ">  <use xlink:href="#a" x="390.7" y="210.4"/>  <use xlink:href="#b" x="399.7" y="210.4"/>  <use xlink:href="#c" x="402.3" y="210.4"/>  <use xlink:href="#d" x="408.5" y="210.4"/>  <use xlink:href="#e" x="414.5" y="210.4"/> </g></svg>
